X:2                          % number
T:Las cinc anglanas
R:Bourre  3 temps                           % title
C:Trad.                           % composer
O:France                           % origin.
M:3/8                           % meter
L:1/8                        % length of shortest note
Q:                           % tempo
K:C                           % key
V:1                          % voice 1
"G7"G | "C"c2e | "G7"d/e/fe | "G7"ded | "C"c2e | "G7"d/e/fe | "G7"d2 ::
"G7"G | "C"c2d | "C"e/d/cB | "F"ABG | "C"c2d | "C"e/d/cB | "C"c2 :|
